core/assets/icons/number.svg

<svg width="24" height="24" viewBox="0 0 24 24" xmlns="http://www.w3.org/2000/svg"><g id="number"><path id="Vector" d="M7 4V20H17V4H7ZM6 2H18C18.2652 2 18.5196 2.10536 18.7071 2.29289C18.8946 2.48043 19 2.73478 19 3V21C19 21.2652 18.8946 21.5196 18.7071 21.7071C18.5196 21.8946 18.2652 22 18 22H6C5.73478 22 5.48043 21.8946 5.29289 21.7071C5.10536 21.5196 5 21.2652 5 21V3C5 2.73478 5.10536 2.48043 5.29289 2.29289C5.48043 2.10536 5.73478 2 6 2ZM12 17C12.2652 17 12.5196 17.1054 12.7071 17.2929C12.8946 17.4804 13 17.7348 13 18C13 18.2652 12.8946 18.5196 12.7071 18.7071C12.5196 18.8946 12.2652 19 12 19C11.7348 19 11.4804 18.8946 11.2929 18.7071C11.1054 18.5196 11 18.2652 11 18C11 17.7348 11.1054 17.4804 11.2929 17.2929C11.4804 17.1054 11.7348 17 12 17Z"/><path id="Vector_2" d="M12.017 6.83601L11.841 6.65901C11.4191 6.23705 10.8468 6 10.25 6C9.65327 6 9.08097 6.23705 8.65901 6.65901C8.23705 7.08097 8 7.65327 8 8.25001C8 8.84675 8.23705 9.41905 8.65901 9.84101L12.017 13.2L15.377 9.84101C15.5859 9.63208 15.7517 9.38404 15.8648 9.11106C15.9778 8.83807 16.036 8.54549 16.036 8.25001C16.036 7.95454 15.9778 7.66195 15.8648 7.38897C15.7517 7.11599 15.5859 6.86795 15.377 6.65901C15.1681 6.45008 14.92 6.28435 14.6471 6.17127C14.3741 6.0582 14.0815 6 13.786 6C13.4905 6 13.198 6.0582 12.925 6.17127C12.652 6.28435 12.4039 6.45008 12.195 6.65901L12.017 6.83601Z"/></g></svg>

<svg xmlns="http://www.w3.org/2000/svg" width="24" height="24" fill="none"><g fill="#191C22"><path d="M7 4v16h10V4H7ZM6 2h12a1 1 0 0 1 1 1v18a1 1 0 0 1-1 1H6a1 1 0 0 1-1-1V3a1 1 0 0 1 1-1Zm6 15a1 1 0 1 1 0 2 1 1 0 0 1 0-2Z"/><path d="m12.017 6.836-.176-.177a2.25 2.25 0 1 0-3.182 3.182l3.358 3.359 3.36-3.359a2.251 2.251 0 0 0-3.182-3.182l-.178.177Z"/></g></svg>
